X:59
T:Merry Blacksmith, The
S:The Session: https://thesession.org/tunes/72#setting72
C:Traditional
R:reel
K:D
M:4/4
L:1/8
Q:1/4=120
AB|: d2dA BAFA| ABdA BAFA|| ABde fded| Beed egfe| 
| d3A BAFA-| ABdA BAFA-|| ABde fdec|1 dBAF D2 AB:|2 dBAF fg|]
|:a2ag f2fe| d2dA BAFA-| ABde fded| Beed egfg|
| abag fgfe| dcdA BAFA| ABde fdec|1 dBAF D2 fg:|2 dBAF D4|]

